X:1
T:The Keel Row
L:1/8
M:4/4
I:linebreak $
K:A
V:1 treble 
V:1
 d | c2 A>c d2 B>d | c2 A>c B>GE>d | c2 A>c d2 B>d | c>AB<G A2 A :: d | c<ee<a f2 e>d |$ %7
 c2 A>c B>GE>d | c<ee<a f2 e>d | c>AB<G A2 A :| %10
